src/assets/images/skills/jquery.svg

<?xml version="1.0" encoding="UTF-8" standalone="no"?>
<svg width="64px" height="64px" viewBox="0 0 64 64" version="1.1" xmlns="http://www.w3.org/2000/svg" xmlns:xlink="http://www.w3.org/1999/xlink">
    <defs></defs>
    <g id="Frameworks" stroke="none" stroke-width="1" fill="none" fill-rule="evenodd">
        <g id="icons/skills/id-255" fill="#0868AC">
            <path d="M5.81025761,16.5748168 C0.49814243,24.2094471 1.15944755,34.1434733 5.21734676,42.2563819 C5.31367671,42.4509684 5.41482316,42.6421833 5.51452466,42.8333983 L5.70429466,43.1989704 L5.8227805,43.4094514 L6.03422475,43.7880281 C6.16041698,44.0100686 6.28949912,44.2311459 6.42147115,44.4522231 L6.64254839,44.8163503 C6.78896992,45.0528404 6.93876299,45.2864405 7.09192761,45.519559 L7.28362422,45.8152919 C7.49506846,46.1307725 7.7113292,46.4457715 7.93481469,46.7549906 L7.95359903,46.7790731 L8.06341518,46.9274212 C8.25655673,47.1937735 8.45547808,47.4567543 8.65680768,47.7168452 L8.88029316,48.0010185 C9.05994852,48.2269123 9.24249378,48.451361 9.42841059,48.6748465 L9.63792823,48.9253044 C9.88742281,49.2191108 10.1422155,49.5114722 10.4018247,49.7980538 L10.4177192,49.8139482 L10.4470998,49.8467004 C10.7009292,50.123649 10.9605385,50.3943362 11.2235192,50.6650233 L11.4725322,50.9159629 C11.67627,51.1211456 11.8833794,51.3229569 12.0924154,51.5238048 L12.3462448,51.7646297 C12.6256017,52.0280921 12.9078484,52.2862564 13.195875,52.5386409 L13.2093612,52.5492372 L13.3572277,52.6754294 C13.6110571,52.8950617 13.8692214,53.113249 14.1293122,53.3271015 L14.4491277,53.5818943 C14.6615352,53.7523983 14.876351,53.9200124 15.0926117,54.0847366 L15.4365097,54.3462724 C15.6754079,54.5220746 15.9157512,54.6949869 16.1585027,54.8640459 L16.4214834,55.0504444 L16.4937309,55.1019809 C16.7239595,55.2604437 16.9594862,55.4131266 17.1950129,55.5658096 L17.4984523,55.7681025 C17.8596896,55.9964045 18.2257434,56.2222982 18.5961321,56.4404856 L18.8995714,56.6114712 C19.1717035,56.7684891 19.4457623,56.922617 19.7231925,57.0733734 C19.8734672,57.1542905 20.0275952,57.2308728 20.1788332,57.3084184 C20.3748646,57.4110098 20.5694511,57.5150462 20.7688541,57.6147477 L20.905161,57.6807337 L21.1464675,57.7972929 C21.455205,57.9446778 21.7663508,58.0896543 22.0808681,58.2293328 L22.2783445,58.3179563 C22.6386185,58.4754558 23.0017824,58.6266938 23.3683179,58.7711888 L23.6337069,58.8757067 C23.9727883,59.0062338 24.3166863,59.135316 24.6620291,59.2566917 L24.7911113,59.3014851 C25.1701696,59.4339388 25.5525995,59.5567595 25.9379193,59.6766903 L26.2148679,59.7595341 C26.6069308,59.8775382 26.9946589,60.0186616 27.3987631,60.0933173 C53.0894795,64.7783245 60.5521608,44.6549977 60.5521608,44.6549977 C54.2844525,52.820406 43.1593064,54.9743437 32.6184015,52.5762096 C32.2191138,52.4861411 31.8318674,52.3613938 31.4422128,52.2462795 L31.1488881,52.1571743 C30.7683848,52.040615 30.391253,51.9177943 30.0160478,51.7887122 L29.860475,51.7323592 C29.5242834,51.614355 29.1924267,51.4896077 28.8615334,51.3619705 L28.5812132,51.2516727 C28.2190126,51.1086228 27.8587386,50.9593113 27.5027994,50.8032568 L27.287502,50.7078902 C26.9816544,50.569175 26.6791783,50.4294966 26.3776656,50.28452 L26.1146848,50.1583278 C25.8781948,50.0432135 25.644113,49.9208745 25.4109945,49.800462 C25.25494,49.7180999 25.0959956,49.6405543 24.941386,49.5548206 C24.6562493,49.4021377 24.3768925,49.2436749 24.0980173,49.0818406 L23.8133623,48.9228962 C23.4429736,48.7051905 23.0774014,48.4792967 22.7152008,48.2500314 L22.4189862,48.052555 C22.1564871,47.883496 21.8949513,47.7110654 21.6372686,47.532855 L21.3858475,47.3560895 C21.1373162,47.1802873 20.8911932,47.0025586 20.6469967,46.8219399 L20.3199566,46.5743719 C20.0959894,46.4033863 19.8734672,46.2309557 19.6533533,46.0532269 L19.3561754,45.8148103 C19.0758552,45.5841 18.7993883,45.3529082 18.5258112,45.1149732 L18.4347794,45.0383909 C18.1390465,44.7787816 17.8490933,44.5124293 17.56203,44.2451137 L17.315907,44.0086237 C17.1034995,43.8063308 16.8944635,43.6025929 16.688799,43.3935569 L16.4431577,43.1483972 C16.1816218,42.8805999 15.9249025,42.6094311 15.6734813,42.3344091 L15.635431,42.2939505 C15.3695604,42.0030341 15.1094695,41.7058562 14.8546768,41.4057884 L14.6504573,41.1630369 C14.4606873,40.9342533 14.2723622,40.7025797 14.088372,40.468498 L13.8827075,40.2122603 C13.6616303,39.925197 13.4453696,39.6395787 13.2339253,39.3481806 C7.38188077,31.3653175 5.27899793,20.3557674 9.95629872,11.3142381 M22.3005004,10.1419026 C18.4583802,15.6702785 18.6674162,23.0713087 21.664241,28.9180551 C22.1666017,29.8982124 22.7315769,30.8494706 23.3635014,31.7544905 C23.9390728,32.5795566 24.5772588,33.5611588 25.3411553,34.2239088 C25.6181039,34.5287931 25.9075754,34.8264527 26.2033084,35.1188141 L26.430647,35.3427812 C26.7177103,35.6211748 27.0091084,35.8947519 27.3111028,36.1606225 L27.3467449,36.1914481 L27.3554146,36.2001178 C27.6891979,36.4929609 28.0335774,36.7737627 28.3837368,37.0511929 L28.6173369,37.2332565 C28.9684596,37.5024987 29.3263254,37.7664428 29.6928608,38.0188273 L29.7241681,38.0424281 C29.8860024,38.1541709 30.0507266,38.2582072 30.2149692,38.3660968 L30.447606,38.519743 C30.7096235,38.6878388 30.9750125,38.8515997 31.2447364,39.0086175 L31.3579241,39.0741219 C31.5905609,39.2080205 31.8260876,39.3399926 32.0625777,39.4681114 L32.3135172,39.5986385 C32.4767964,39.6838905 32.6400757,39.7710691 32.8062449,39.8539129 L32.8809006,39.8876283 C33.2195004,40.0542792 33.5609901,40.2151502 33.9097045,40.3668699 L34.1370432,40.4603099 C34.4159184,40.5787958 34.6976835,40.6943917 34.9799302,40.8022812 L35.3411676,40.9347349 C35.5978869,41.0301016 35.8555695,41.1167985 36.1151787,41.2039771 L36.4653381,41.3162015 C36.8347635,41.4308342 37.199854,41.5758107 37.5846921,41.6398702 C57.4204741,44.9261665 62,29.6535343 62,29.6535343 C57.8722616,35.5985373 49.8778389,38.4354543 41.34734,36.2208287 C40.9682817,36.1211272 40.5950031,36.0132377 40.2236512,35.8961968 L39.8860147,35.7868623 C39.6220706,35.7016103 39.3600531,35.6110601 39.1004439,35.5161751 L38.7459497,35.3842031 C38.460813,35.274387 38.1795296,35.1616809 37.9001727,35.0431951 L37.6723524,34.9468651 C37.322193,34.7946638 36.9773318,34.6337928 36.6377687,34.465697 C36.4629298,34.380445 36.2909809,34.2903765 36.1185503,34.201753 L35.8189641,34.047625 C35.5983685,33.9281759 35.3787362,33.8039103 35.1624755,33.6767547 L35.0054577,33.5876495 C34.7366971,33.4311133 34.4722714,33.269279 34.2102539,33.1021466 L33.9703923,32.9422388 C33.7974801,32.8304961 33.6250495,32.7163451 33.4555088,32.6017125 C33.0899366,32.349328 32.7339974,32.0853839 32.3833564,31.8175867 L32.1420499,31.627335 C28.4083009,28.6796385 25.4480815,24.6501566 24.0411826,20.0817087 C22.566371,15.3442016 22.8842599,10.025825 25.4394118,5.70927989 M36.1696051,5.33600133 C33.904888,8.66901765 33.6823658,12.8083157 35.253989,16.4890831 C36.9113458,20.3967076 40.3069766,23.461445 44.2704724,24.9155456 C44.4337517,24.9757518 44.5975126,25.0296966 44.7627185,25.0860496 L44.9799425,25.1549256 C45.2135426,25.2281363 45.4452162,25.3133883 45.6865227,25.3591451 C56.6392382,27.4755141 59.6100539,19.738774 60.4004412,18.5996724 C57.7985692,22.3464258 53.4251894,23.2456659 48.0591294,21.943285 C47.6352776,21.8406936 47.1695223,21.687529 46.7610833,21.5425524 C46.2370484,21.3556723 45.7207198,21.1427831 45.2193224,20.9024398 C44.2666192,20.4443909 43.3582278,19.8890488 42.516304,19.2532711 C37.7147376,15.6095907 34.7318806,8.6598663 37.8650123,3" id="Shape"></path>
        </g>
    </g>
</svg>

<svg xmlns="http://www.w3.org/2000/svg" width="64" height="64" xmlns:v="https://vecta.io/nano"><path d="M5.8 16.575c-5.312 7.635-4.65 17.57-.593 25.682.096.195.197.386.297.577l.2.366.118.2.21.38.387.664.22.364.45.703.192.296c.21.315.428.63.65.94l.02.024.1.148c.193.266.392.53.593.79L8.88 48l.548.674.2.25c.25.294.504.586.764.873l.016.016.03.033c.254.277.513.548.776.818l.25.25.62.608.254.24a31.39 31.39 0 0 0 .85.774l.013.01.148.126.772.652.32.255.643.503.344.262.722.518.335.238c.23.158.466.31.7.464l.303.202 1.098.672.303.17.824.462c.15.08.304.157.456.235l.6.306.136.066.24.117.934.432.197.09a32.23 32.23 0 0 0 1.09.453l.265.105 1.028.38.13.045c.38.132.76.255 1.147.375l.277.083c.392.118.78.26 1.184.334 25.69 4.685 33.153-15.438 33.153-15.438-6.268 8.165-17.393 10.32-27.934 7.92-.4-.1-.787-.215-1.176-.33l-.293-.09a34.92 34.92 0 0 1-1.133-.368l-.156-.056c-.336-.118-.668-.243-1-.37l-.28-.1a31.55 31.55 0 0 1-1.078-.448l-.215-.095-.9-.423-.263-.126c-.236-.115-.47-.237-.704-.358l-.47-.246a28.22 28.22 0 0 1-.843-.473l-.285-.16a39.12 39.12 0 0 1-1.098-.673l-.296-.197-.782-.52-.25-.177-.74-.534-.327-.248-.667-.52-.297-.238-.92-.776a40.2 40.2 0 0 1-.873-.793l-.246-.236-.627-.615-.246-.245c-.262-.268-.518-.54-.77-.814l-.038-.04a32.46 32.46 0 0 1-.781-.888l-.204-.243-.562-.695-.206-.256-.65-.864C7.382 31.365 5.28 20.356 9.956 11.314M22.3 10.142c-3.842 5.528-3.633 12.93-.636 18.776.502.98 1.067 1.93 1.7 2.836.576.825 1.214 1.807 1.978 2.47.277.305.566.603.862.895l.227.224c.287.278.578.552.88.818l.036.03.01.01a26.62 26.62 0 0 0 1.028.851l.234.182c.35.27.71.533 1.076.786l.03.024c.162.112.327.216.49.324l.233.154c.262.168.527.332.797.49l.113.066.705.394.25.13.493.255.075.034c.34.167.68.328 1.03.48l.227.093a24.88 24.88 0 0 0 .843.342l.36.132c.257.095.514.182.774.27l.35.112c.37.115.735.26 1.12.324C57.42 44.926 62 29.654 62 29.654c-4.128 5.945-12.122 8.782-20.653 6.567-.38-.1-.752-.208-1.124-.325l-.338-.11a21.88 21.88 0 0 1-.786-.271l-.354-.132c-.285-.1-.566-.223-.846-.34l-.228-.096a22.99 22.99 0 0 1-1.035-.481c-.175-.085-.347-.175-.52-.264l-.3-.154c-.22-.12-.44-.244-.656-.37l-.157-.09c-.27-.157-.533-.318-.795-.486l-.24-.16-.515-.34c-.366-.252-.722-.516-1.072-.784l-.24-.2c-3.734-2.948-6.694-6.977-8.1-11.546-1.475-4.738-1.157-10.056 1.398-14.372m10.73-.373c-2.265 3.333-2.487 7.472-.916 11.153 1.657 3.908 5.053 6.972 9.016 8.426.163.06.327.114.492.17l.217.07c.234.073.465.158.707.204C56.64 27.476 59.6 19.74 60.4 18.6c-2.602 3.747-6.975 4.646-12.34 3.344-.424-.103-.9-.256-1.298-.4a16.01 16.01 0 0 1-1.542-.64 16 16 0 0 1-2.703-1.649C37.715 15.6 34.732 8.66 37.865 3" fill="#0868ac" fill-rule="evenodd"/></svg>
